X: 1
T:AVANT DEUX de SAINT-GRAVE
M:4/4
L:1/8
Q:1/4=120
K:G
|:DGBA/2B/2 cAB3/2 z/2 |dBAG A3/2 z/2 G3/2 z/2:|!
|:ABcd3/2 z/2 e3/2 z/2 d|d/2d/2dcB3/2 z/2 A3/2 z/2 G:|!
AGAB ddc/2B/2A|AGAB AGAB|ddc/2B/2A G/2A/2BAG|ABdd c/2B/2A3/2 z/2 d3/2 z/
2 |
|:GABc d3/2 z/2 e3/2 z/2 |dd/2d/2dc B3/2 z/2 A3/2 z/2:|
G3/2 z/2 G3/2 z/2 G3/2|
